X: 104101
T: STIRLING CASTLE
Q:"Strathspey."
R: Strathspey.
%R:strathspey, shottish
Z: 2017 by John Chambers <jc:trillian.mit.edu>
B: Kerr's Merrie Melodies v.1 p.4 s.1 #1
N: The D.C. is closer to the 1st staff, but clearly belongs on at the end of the tune.
M: C
L: 1/8
K: D
[|\
vD2uF>A D>AF>A | A,2C>E A,2C>E A,>EC>E |\
D2F>A D>AF>A | (3Bcd (3efg (3fed (3cBA |\
D2F>A D>AF>A | A,2C>E A,>EC>E |
D2F>A D>AF>A | (3Bcd (3efg f<d d H|]\
uA |\
d2f>d g>ef>d | B2c>d (3efd (3cBA |\
d2f>d g>ef>d |
(3Bcd (3efg f<d d>uA |\
d<d f>d g>ef>d | B2c>d (3efd (3cBA |\
(3fga (3gfe (3dcB (3AGF | (3GAB (3ABc (3dAG (3FG"^D.C."E |]

%%sep 1 1 500
%%sep 1 1 500

